X:0897
T:Mr. D: Bridge's Reel.
N:from John Macglashan, 1798 (Mr D. Bridges Junrs. Reel)
M:C
L:1/8
Q:1/2=104
I: :: ||
Z:Jack Campin * www.campin.me.uk * 2009
K:D
D|F2FA defd|BdAF  E/E/E  EA|FDFA defd|Bdce d/d/d d:|
e|f2af dAdf|gefd (c/d/e) cA|fgaf dAdf|geaf d/d/d de|
  f2af dAdf|gefd (c/d/e) cA|BdAd GdFA|Bgfe d/d/d d|]

